app/dist/common/images/nubia-brand-international.svg

<svg height="18" viewBox="0 0 18 18" width="18" xmlns="http://www.w3.org/2000/svg"><path d="m0 0h18v18h-18z" fill="#f0f3fa"/><path d="m7.82 14h-1.82v-.37h.33c.17 0 .37-.12.37-.27v-8.82c0-.15-.1-.27-.28-.27h-.42v-.27h2.17l2.83 6.94v-6.4c0-.15-.18-.27-.35-.27h-.41v-.27h1.76v.26l-.46.01c-.17 0-.24.12-.24.28v9.45h-.75l-3.55-8.66v8.02c0 .15.05.28.22.28h.6z"/></svg>

<!-- by TradingView --><svg width="18" height="18" viewBox="0 0 18 18" xmlns="http://www.w3.org/2000/svg"><path fill="#F0F3FA" d="M0 0h18v18H0z"/><path d="M7.82 14H6v-.37h.33c.17 0 .37-.12.37-.27V4.54c0-.15-.1-.27-.28-.27H6V4h2.17L11 10.94v-6.4c0-.15-.18-.27-.35-.27h-.41V4H12v.26l-.46.01c-.17 0-.24.12-.24.28V14h-.75L7 5.34 7 13.36c0 .15.05.28.22.28h.6V14Z"/></svg>
